kora/panel/16/webtorrent-desktop-panel.svg

<svg xmlns="http://www.w3.org/2000/svg" width="16" height="16" version="1.1">
 <defs>
  <style id="current-color-scheme" type="text/css">
   .ColorScheme-Text { color:#dfdfdf; } .ColorScheme-Highlight { color:#4285f4; }
  </style>
 </defs>
 <path style="fill:currentColor" class="ColorScheme-Text" d="M 8.5390625 1 A 1.6487165 1.5917475 0 0 0 7.6757812 1.2128906 L 2.8242188 3.9179688 A 1.6487165 1.5917475 0 0 0 2 5.296875 L 2 10.703125 A 1.6487165 1.5917475 0 0 0 2.8242188 12.083984 L 7.6757812 14.787109 A 1.6487165 1.5917475 0 0 0 9.3242188 14.787109 L 14.175781 12.083984 A 1.6487165 1.5917475 0 0 0 15 10.703125 L 15 5.296875 A 1.6487165 1.5917475 0 0 0 14.175781 3.9179688 L 9.3242188 1.2128906 A 1.6487165 1.5917475 0 0 0 8.5390625 1 z M 8.5 3 L 13 5.53125 L 13 10.46875 L 8.5 13 L 4 10.46875 L 4 5.53125 L 8.5 3 z M 7.4296875 6 C 6.6405883 6 6 6.7359673 6 7.6425781 C 6 9.0563826 8.2014282 10.166667 8.4765625 11 C 8.7516975 10.166667 10.953125 9.0563826 10.953125 7.6425781 C 10.953125 6.7359673 10.312536 6 9.5234375 6 C 9.1095982 6 8.7375687 6.2550999 8.4765625 6.578125 C 8.2155571 6.2550999 7.8435265 6 7.4296875 6 z"/>
</svg>

<svg xmlns="http://www.w3.org/2000/svg" width="16" height="16" viewBox="0 0 16 16">
 <defs>
  <style id="current-color-scheme" type="text/css">
   .ColorScheme-Text { color:#dfdfdf; } .ColorScheme-Highlight { color:#4285f4; } .ColorScheme-NeutralText { color:#ff9800; } .ColorScheme-PositiveText { color:#4caf50; } .ColorScheme-NegativeText { color:#f44336; }
  </style>
 </defs>
 <path style="fill:currentColor" class="ColorScheme-Text" d="m8.539 1c-.302-.007-.601.067-.863.213l-4.852 2.705c-.509.284-.824.811-.824 1.379v5.406c-.001.569.314 1.097.824 1.381l4.852 2.703c.509.284 1.139.284 1.648 0l4.852-2.703c.51-.284.825-.812.824-1.381v-5.406c0-.568-.315-1.095-.824-1.379l-4.852-2.705c-.239-.133-.509-.207-.785-.213zm-.039.854 5.532 3.111v6.07l-5.532 3.111-5.532-3.111v-6.07zm-1.07 4.146c-.789 0-1.43.736-1.43 1.643 0 1.413 2.201 2.524 2.477 3.357.275-.833 2.476-1.944 2.476-3.357 0-.907-.64-1.643-1.43-1.643-.413 0-.785.255-1.046.578-.261-.323-.633-.578-1.047-.578z" />
</svg>
